!!!!SEGMENT: pl-kk--kk-i-382--094-008_richling--msza-na-3-glosy-dona.krn
!!!cenid: 18xx:1612
!!!COM: Richling
!!!COM-rismID: pe50045950
!!!CDT:
!!!CNT:
!!!OPR: Msza na 3 głosy
!!!OTL: Dona
!!!OMV: 008
!!!PDT:
!!!AGN: Sacred; Mass
!!!SMS-siglum: PL-Kk
!!!SMS-shelfmark: Kk.I.382
!!!SMS-shelfwork: 094-008 M
!!!SMS-variant:
!!!SMS-altvar:
!!!NIFC-rismSourceID: 1001142972
!!!NIFC-islandoraID: pl-kk:6162
!!!URL-pdf-islandora: https://repozytorium.nifc.pl/islandora/object/pl-kk%3A6162/datastream/PDF/view
!!!URL-scan: https://polish.musicsources.pl/pl/lokalizacje/galeria/rekopisy/5994 @EN{Scan on Polish Music Herritage in Open Access Website} @PL{Skany w portalu Dziedzictwo Muzyki Polskiej w otwartym dostępie}
!!!ONB-nifc: S/T1 od 0062, A/B1 od 0206, B2 od 0279. Części Mszy: 1. Kyrie, 2. Et in terra, 3. Tollite portas, 4. Patrem, 5. Sanctus, 6. Benedictus, 7. Agnus Dei, 8. Dona
!!!AIN: 1 alto 1 bass 1 tenor
!!!key:
**kern	**text	**kern	**text	**kern	**text
*part3	*part3	*part2	*part2	*part1	*part1
*staff3	*staff3	*staff2	*staff2	*staff1	*staff1
*Ibass	*	*Ialto	*	*Itenor	*
*I"Basso II	*	*I"Alto. vel Basso I	*	*I"Soprano vel Tenore I.	*
*I'B 2	*	*I'A/B 1	*	*I'S/T 1	*
*clefF4	*	*clefF4	*	*clefG2	*
*	*	*	*	*ITrd7c12	*
*k[f#c#g#]	*	*k[f#c#g#]	*	*k[f#c#g#]	*
*A:	*	*A:	*	*A:	*
*M3/4	*	*M3/4	*	*M3/4	*
=1	=1	=1	=1	=1	=1
*	*	*2\right	*	*2\right	*
!	!	!	!	!LO:TX:t=P:problem=all\middle or right&colon; global	!
!LO:TX:a:t=Allegro.	!	!LO:TX:a:t=Allegro	!	!LO:TX:a:t=Allegro	!
(2.AA/	Do-	[2.E\	Do-	(2.c#\	Do-
=2	=2	=2	=2	=2	=2
2C#/)	.	2E\]	.	2A/)	.
4C#/	-na	4E\	-na	4A/	-na
=3	=3	=3	=3	=3	=3
*2\right	*	*	*	*	*
2.E\	pa-	2.G#\	pa-	2.B\	pa-
!	!	!LO:LB:g=original	!	!	!
=4	=4	=4	=4	=4	=4
4A\	-cem	4A\	-cem	4c#\	-cem,
4r	.	4r	.	4r	.
4F#\	da	4A\	da	4c#\	da
!LO:LB:g=original	!	!	!	!	!
=5	=5	=5	=5	=5	=5
(2D#X\	pa-	[2.A\	pa-	[2.B\	pa-
4F#\)	.	.	.	.	.
=6	=6	=6	=6	=6	=6
(4BB\	-a-	2.A\]	.	2.B\]	.
4C#\	.	.	.	.	.
4D#X\	.	.	.	.	.
=7	=7	=7	=7	=7	=7
2E\)	-cem	2G#X\	-cem	(2B\	a-
4r	.	4r	.	4G#X\)	.
!	!	!	!	!LO:LB:g=original	!
=8	=8	=8	=8	=8	=8
!LO:TX:b:t=1.	!	!LO:TX:b:t=1.	!	!	!
2.r	.	2.r	.	(<4E/	-a-
.	.	.	.	4G#/	.
.	.	.	.	4B\)	cem.
=9	=9	=9	=9	=9	=9
(2.BB/	do-	2.F#\	Do-	(2.d\	Do-
=10	=10	=10	=10	=10	=10
2D\	.	2F#\	.	2B\	.
4D\)	-na	4F#\	-na	4B\)	-na
=11	=11	=11	=11	=11	=11
2.F#\	no-	(2.A#X\	no-	2.c#\	no-
!	!	!LO:LB:g=original	!	!	!
=12	=12	=12	=12	=12	=12
2.BB/	-bis	2B\)	.	2.d\	-bis
.	.	4F#\	-bis	.	.
=13	=13	=13	=13	=13	=13
2.BB/	pa-	(2.A\	pa-	(2.c#\	pa-
!LO:LB:g=original	!	!	!	!	!
=14	=14	=14	=14	=14	=14
[2.E\	.	2G#\	.	2B\	-a-
.	.	4F#\)	.	4A\)	.
=15	=15	=15	=15	=15	=15
2.E\]	.	2E\	-a-	2G#/	.
.	.	4F#/	.	4A/	.
!	!	!	!	!LO:LB:g=original	!
=16	=16	=16	=16	=16	=16
2E\	-cem.	2G#\	-cem	2B\	-cem,
4r	.	4r	.	4r	.
=17	=17	=17	=17	=17	=17
2.A\	do-	2.A\	Do-	2.A/	do-
=18	=18	=18	=18	=18	=18
2F#\	-na	2A\	-na	2c#\	-na,
4r	.	4r	.	4r	.
!	!	!LO:LB:g=original	!	!	!
=19	=19	=19	=19	=19	=19
2.D\	do-	2.A\	Do-	[2.f#\	do-
=20	=20	=20	=20	=20	=20
2.BB\	-na	2d\	.	2f#\]	.
.	.	4c#\	-na	4e\	-na,
=21	=21	=21	=21	=21	=21
(2E\	pa-	[2.B\	pa-	[2.d\	pa-
4Fn\)	.	.	.	.	.
=22	=22	=22	=22	=22	=22
(2.E\	-a-	4B\]	.	4d\]	.
.	.	4A\	.	4c#\	.
.	.	4G#\	.	4B\	.
!LO:LB:g=original	!	!	!	!	!
=23	=23	=23	=23	=23	=23
2E\	.	[2.A\	-cem,	[2.c#\	-cem
4E#X\	.	.	.	.	.
=24	=24	=24	=24	=24	=24
2F#\)	.	2A\]	.	2c#\]	.
4Gn\	-cem	4r	.	4r	.
!	!	!	!	!LO:LB:g=original	!
=25	=25	=25	=25	=25	=25
(2.F#\	do-	2.A\	do-	[2.d\	do-
=26	=26	=26	=26	=26	=26
2.Fn\)	.	2.A\	-na	2.d\]	.
!	!	!LO:LB:g=original	!	!	!
=27	=27	=27	=27	=27	=27
(2.E\	-na	2.A\	no-	(2.c#\	-na
=28	=28	=28	=28	=28	=28
2.D#X\)	.	2.A\	-bis.	2.c\)	.
=29	=29	=29	=29	=29	=29
(2.E\	pa-	2.A\	pa-	[2.B\	pa-
=30	=30	=30	=30	=30	=30
2E\	.	2.G#\	.	2.B\]	.
4Dn\)	.	.	.	.	.
!LO:LB:g=original	!	!	!	!	!
=31	=31	=31	=31	=31	=31
2.C#/	.	2.E\	.	[2.A/	cem,
=32	=32	=32	=32	=32	=32
2D/	-cem,	2F#\	-cem,	2A/]	.
4r	.	4r	.	4r	.
=33	=33	=33	=33	=33	=33
(2.D\	do-	(2.F#\	do-	(2.B\	do-
!	!	!	!	!LO:LB:g=original	!
=34	=34	=34	=34	=34	=34
!	!	!	!	!LO:TX:t=P:problem=brak dokończenia łuku	!
2E\	.	2Gn\)	.	2A#X\)	o-
4E\)	-na	4G\	-na	4A#\	-na
!	!	!LO:LB:g=original	!	!	!
=35	=35	=35	=35	=35	=35
2.D\	no-	2.F#\	no-	2.B\	no-
=36	=36	=36	=36	=36	=36
2.D#X\	-bis	2.F#\	-bis	2.An/	-bis
=37	=37	=37	=37	=37	=37
[2.E\	pa-	(2E\	pa-	2G#/	pa-
.	.	4F#\	.	4A/	.
=38	=38	=38	=38	=38	=38
2.E\]	.	2.G#\)	.	(2B\	.
.	.	.	.	4B#X\)	.
!LO:LB:g=original	!	!	!	!	!
=39	=39	=39	=39	=39	=39
2.AA/	-cem	2.A\	-cem,	2.c#\	-cem
=40	=40	=40	=40	=40	=40
!LO:TX:a:t=P:problem=Solo dopisane ołówkiem	!	!LO:TX:b:t=1.	!	!LO:TX:a:t=1.	!
[2.E\	pa-	2.r	.	2.r	.
=41	=41	=41	=41	=41	=41
2.E\]	.	[2.G#\	pa-	(2d\	pa-
.	.	.	.	4c#\	.
!	!	!	!	!LO:LB:g=original	!
=42	=42	=42	=42	=42	=42
(2E\	-a-	2.G#\]	.	4B\	-a-
.	.	.	.	4c#\	.
4D\	.	.	.	4B\)	.
!	!	!LO:LB:g=original	!	!	!
=43	=43	=43	=43	=43	=43
!	!	!	!	!LO:TX:t=P:problem=cezura ołówkiem	!
[>2.C#/)	-cem	(4A\	-a-	2.A,/	-cem
.	.	4G#\	.	.	.
.	.	4F#\)	-cem,	.	.
=44	=44	=44	=44	=44	=44
2.C#/]	.	(4E\	do-	2.A/	pa-
.	.	4F#\	.	.	.
.	.	4Gn\)	-na	.	.
=45	=45	=45	=45	=45	=45
[2.D\	pa-	(2F#\	pa-	(2.A/	.
.	.	4E#X\)	.	.	.
=46	=46	=46	=46	=46	=46
2.D\]	.	2F#\	cem,	4d\	.
.	.	.	.	4A\	.
.	.	4Fn\	da	4B\	.
!LO:LB:g=original	!	!	!	!	!
=47	=47	=47	=47	=47	=47
[>2.AA/	-cem.	(4E\	pa-	2.c#\)	.
.	.	4D#X\	.	.	.
.	.	4F#\)	.	.	.
=48	=48	=48	=48	=48	=48
!LO:TX:a:t=Ig[nacy]&colon; Piaczyn[ski]\n1875	!	!	!	!LO:TX:b:t=Ig[nacy]&colon; Piaczyn[ski]\n1875	!
2.AA/]	.	2.E\	-cem.	2.c#;\	-cem.
==	==	==	==	==	==
*-	*-	*-	*-	*-	*-
!!!system-decoration: [(s1,s2,s3)]
!!!RDF**kern: > = above
!!!RDF**kern: < = below
!!!EED: Leszek Kubiak
!!!EEV: 2021-03-26
!!!ENC: Krzysztof Stępień
!!!END: 2021-03-05
